Sweet-Rainbow/icons/emacs.svg

<?xml version="1.0" encoding="UTF-8" standalone="no"?>
<!-- Generator: Gravit.io -->

<svg
   xmlns:dc="http://purl.org/dc/elements/1.1/"
   xmlns:cc="http://creativecommons.org/ns#"
   xmlns:rdf="http://www.w3.org/1999/02/22-rdf-syntax-ns#"
   xmlns:svg="http://www.w3.org/2000/svg"
   xmlns="http://www.w3.org/2000/svg"
   xmlns:sodipodi="http://sodipodi.sourceforge.net/DTD/sodipodi-0.dtd"
   xmlns:inkscape="http://www.inkscape.org/namespaces/inkscape"
   style="isolation:isolate"
   viewBox="0 0 36 36"
   width="48"
   height="48"
   version="1.1"
   id="svg9"
   sodipodi:docname="emacs.svg"
   inkscape:version="0.92.4 (5da689c313, 2019-01-14)">
  <metadata
     id="metadata15">
    <rdf:RDF>
      <cc:Work
         rdf:about="">
        <dc:format>image/svg+xml</dc:format>
        <dc:type
           rdf:resource="http://purl.org/dc/dcmitype/StillImage" />
        <dc:title></dc:title>
      </cc:Work>
    </rdf:RDF>
  </metadata>
  <defs
     id="defs13" />
  <sodipodi:namedview
     pagecolor="#ffffff"
     bordercolor="#666666"
     borderopacity="1"
     objecttolerance="10"
     gridtolerance="10"
     guidetolerance="10"
     inkscape:pageopacity="0"
     inkscape:pageshadow="2"
     inkscape:window-width="640"
     inkscape:window-height="480"
     id="namedview11"
     showgrid="false"
     inkscape:zoom="29.365243"
     inkscape:cx="25.325443"
     inkscape:cy="32"
     inkscape:current-layer="svg9"
     units="px" />
  <linearGradient
     id="_lgradient_99"
     x1="-3.8208334e-05"
     y1="0.50000006"
     x2="0.99996185"
     y2="0.50000006"
     gradientTransform="scale(48,47.249)"
     gradientUnits="userSpaceOnUse">
    <stop
       offset="0%"
       stop-opacity="1"
       style="stop-color:rgb(211,0,220)"
       id="stop2" />
    <stop
       offset="100%"
       stop-opacity="1"
       style="stop-color:rgb(135,0,255)"
       id="stop4" />
  </linearGradient>
  <g
     id="g826"
     transform="matrix(0.75,0,0,0.75,0,0.28155109)">
    <path
       id="path7"
       d="m 18.81,43.32 v 0 c 1.065,0.287 1.697,1.385 1.41,2.45 v 0 c -0.287,1.065 -1.385,1.697 -2.45,1.41 v 0 C 12.67,45.81 8.16,42.79 4.95,38.6 1.74,34.41 0,29.28 0,24 0,17.64 2.53,11.53 7.03,7.03 11.53,2.53 17.64,0 24,0 30.36,0 36.47,2.53 40.97,7.03 45.47,11.53 48,17.64 48,24 c 0,5.26 -1.73,10.37 -4.91,14.55 -3.19,4.18 -7.66,7.2 -12.73,8.6 v 0 c -1.065,0.293 -2.167,-0.335 -2.46,-1.4 v 0 c -0.293,-1.065 0.335,-2.167 1.4,-2.46 v 0 C 33.52,42.13 37.25,39.61 39.91,36.13 42.56,32.64 44,28.38 44,24 44,18.7 41.89,13.61 38.14,9.86 34.39,6.11 29.3,4 24,4 18.7,4 13.61,6.11 9.86,9.86 6.11,13.61 4,18.7 4,24 c 0,4.4 1.45,8.68 4.13,12.17 2.67,3.49 6.43,6.01 10.68,7.15 z m -0.783,-6.357 c 0,0 1.681,0.119 3.843,-0.071 0.875,-0.077 4.2,-0.404 6.685,-0.949 0,0 3.03,-0.649 4.652,-1.246 1.696,-0.625 2.619,-1.156 3.034,-1.908 -0.018,-0.154 0.128,-0.7 -0.654,-1.028 -2,-0.839 -4.319,-0.687 -8.909,-0.784 -5.09,-0.175 -6.783,-1.027 -7.685,-1.713 -0.865,-0.696 -0.43,-2.622 3.276,-4.319 1.867,-0.903 9.185,-2.57 9.185,-2.57 -2.465,-1.218 -7.06,-3.36 -8.005,-3.822 -0.829,-0.406 -2.155,-1.016 -2.442,-1.755 -0.326,-0.71 0.77,-1.321 1.381,-1.496 1.971,-0.568 4.753,-0.921 7.285,-0.961 1.273,-0.02 1.479,-0.102 1.479,-0.102 1.756,-0.291 2.913,-1.493 2.431,-3.395 C 33.15,8.901 30.87,7.76 28.703,8.155 c -2.041,0.372 -6.96,1.801 -6.96,1.801 6.08,-0.053 7.098,0.049 7.552,0.684 0.269,0.376 -0.122,0.89 -1.743,1.155 -1.765,0.288 -5.435,0.636 -5.435,0.636 -3.52,0.209 -6,0.223 -6.744,1.797 -0.486,1.029 0.518,1.939 0.958,2.508 1.86,2.068 4.546,3.183 6.275,4.005 0.651,0.309 2.559,0.892 2.559,0.892 -5.609,-0.308 -9.655,1.414 -12.029,3.397 -2.684,2.483 -1.497,5.443 4.003,7.266 3.249,1.076 4.86,1.582 9.705,1.146 2.854,-0.154 3.304,-0.062 3.333,0.172 0.04,0.33 -3.17,1.149 -4.047,1.401 -2.229,0.643 -8.074,1.942 -8.103,1.948 z"
       style="fill:url(#_lgradient_99);fill-rule:evenodd"
       inkscape:connector-curvature="0" />
  </g>
</svg>

<?xml version="1.0" encoding="UTF-8" standalone="no"?><!-- Generator: Gravit.io --><svg xmlns="http://www.w3.org/2000/svg" xmlns:xlink="http://www.w3.org/1999/xlink" style="isolation:isolate" viewBox="0 0 48 48" width="48pt" height="48pt"><linearGradient id="_lgradient_99" x1="-0.000038208333333289435" y1="0.5000000833333331" x2="0.9999618333333335" y2="0.5000000833333331" gradientTransform="matrix(48,0,0,47.249,0,0)" gradientUnits="userSpaceOnUse"><stop offset="0%" stop-opacity="1" style="stop-color:rgb(211,0,220)"/><stop offset="100%" stop-opacity="1" style="stop-color:rgb(135,0,255)"/></linearGradient><path d=" M 18.81 43.32 L 18.81 43.32 C 19.875 43.607 20.507 44.705 20.22 45.77 L 20.22 45.77 C 19.933 46.835 18.835 47.467 17.77 47.18 L 17.77 47.18 C 12.67 45.81 8.16 42.79 4.95 38.6 C 1.74 34.41 0 29.28 0 24 C 0 17.64 2.53 11.53 7.03 7.03 C 11.53 2.53 17.64 0 24 0 C 30.36 0 36.47 2.53 40.97 7.03 C 45.47 11.53 48 17.64 48 24 C 48 29.26 46.27 34.37 43.09 38.55 C 39.9 42.73 35.43 45.75 30.36 47.15 L 30.36 47.15 C 29.295 47.443 28.193 46.815 27.9 45.75 L 27.9 45.75 C 27.607 44.685 28.235 43.583 29.3 43.29 L 29.3 43.29 C 33.52 42.13 37.25 39.61 39.91 36.13 C 42.56 32.64 44 28.38 44 24 C 44 18.7 41.89 13.61 38.14 9.86 C 34.39 6.11 29.3 4 24 4 C 18.7 4 13.61 6.11 9.86 9.86 C 6.11 13.61 4 18.7 4 24 C 4 28.4 5.45 32.68 8.13 36.17 C 10.8 39.66 14.56 42.18 18.81 43.32 Z  M 18.027 36.963 C 18.027 36.963 19.708 37.082 21.87 36.892 C 22.745 36.815 26.07 36.488 28.555 35.943 C 28.555 35.943 31.585 35.294 33.207 34.697 C 34.903 34.072 35.826 33.541 36.241 32.789 C 36.223 32.635 36.369 32.089 35.587 31.761 C 33.587 30.922 31.268 31.074 26.678 30.977 C 21.588 30.802 19.895 29.95 18.993 29.264 C 18.128 28.568 18.563 26.642 22.269 24.945 C 24.136 24.042 31.454 22.375 31.454 22.375 C 28.989 21.157 24.394 19.015 23.449 18.553 C 22.62 18.147 21.294 17.537 21.007 16.798 C 20.681 16.088 21.777 15.477 22.388 15.302 C 24.359 14.734 27.141 14.381 29.673 14.341 C 30.946 14.321 31.152 14.239 31.152 14.239 C 32.908 13.948 34.065 12.746 33.583 10.844 C 33.15 8.901 30.87 7.76 28.703 8.155 C 26.662 8.527 21.743 9.956 21.743 9.956 C 27.823 9.903 28.841 10.005 29.295 10.64 C 29.564 11.016 29.173 11.53 27.552 11.795 C 25.787 12.083 22.117 12.431 22.117 12.431 C 18.597 12.64 16.117 12.654 15.373 14.228 C 14.887 15.257 15.891 16.167 16.331 16.736 C 18.191 18.804 20.877 19.919 22.606 20.741 C 23.257 21.05 25.165 21.633 25.165 21.633 C 19.556 21.325 15.51 23.047 13.136 25.03 C 10.452 27.513 11.639 30.473 17.139 32.296 C 20.388 33.372 21.999 33.878 26.844 33.442 C 29.698 33.288 30.148 33.38 30.177 33.614 C 30.217 33.944 27.007 34.763 26.13 35.015 C 23.901 35.658 18.056 36.957 18.027 36.963 L 18.027 36.963 Z " fill-rule="evenodd" fill="url(#_lgradient_99)"/></svg>
